X: 281
T: O'er Young to Marry yet
R: reel
B: Robert Bremner "A Collection of Scots Reels or Country Dances" p.28 #1
S: http://imslp.org/wiki/A_Collection_of_Scots_Reels_or_Country_Dances_(Bremner,_Robert)
Z: 2013 John Chambers <jc:trillian.mit.edu>
M: C|
L: 1/8
K: C
% - - - - - - - - - - - - - - - - - - - - - - - - -
V: 1
C |\
EG-GA c>de(d | Tc>A)GA dedD |\
EG-GA c>dec | (e/f/g) de cCC :|
|: g |\
ecgc e>fga | ecgc eddg |\
ecgc ef>g(a | ec)dB cCC :|
% - - - - - - - - - - - - - - - - - - - - - - - - -
V: 2 clef=bass middle=d
z |\
c2c2 c2c2 | c2c2 d2d2 |\
c2c2 c2c2 | g2G2 c2c :|\
|: z |
c2c2 c2c2 | c2c2 d2d2 |\
c2c2 c2c2 | G2G2 C2C :|

%%sep 1 1 500
%%sep 1 1 500
